X:19
T: Trinklied zum Verlobungsfest, S. 72
N: S0082
O: Luxemburg
S: Die Bauernhochzeit in frheren Zeiten]
R: Trinklied, Verlobung]
M: 6/8
L: 1/16
K: G
D2 | G4B2A2A2G2 | F2F2A2G4
GG | F4G2A2G2F2 | E4D2D2z2
d2 | d2d2d2e2d2c2 | B6A4
B2 | d2B2B2B2A2B2 | c2A2A2A2z2
B2 | d2c2B2A2B2c2 | A6G2z2

@@@ Tune index: 8073
